packages/Snapp/src/LocationIcon/index.svg

<?xml version="1.0" encoding="UTF-8"?>
<svg width="24px" height="24px" viewBox="0 0 24 24" version="1.1" xmlns="http://www.w3.org/2000/svg" xmlns:xlink="http://www.w3.org/1999/xlink">
    <title>Icons/24/Location</title>
    <g id="Icons/24/Location" stroke="none" stroke-width="1" fill="none" fill-rule="evenodd">
        <rect id="Container" fill-opacity="0" fill="#D8D8D8" fill-rule="nonzero" x="0" y="0" width="24" height="24"></rect>
        <path d="M17.3181035,3 C18.3322056,3 19.1994851,3.36009045 19.9196731,4.08027134 C20.6397269,4.80054179 21,5.66776783 21,6.68185991 L21,6.68185991 L21,17.3181401 C21,18.3322322 20.6399507,19.1993687 19.9197179,19.9196839 C19.1992164,20.6399096 18.3322056,21 17.3181035,21 L17.3181035,21 L6.68176221,21 C5.66766005,21 4.80042538,20.6399096 4.08014776,19.9196839 C3.36009403,19.1993687 3,18.3321874 3,17.3181401 L3,17.3181401 L3,6.68185991 C3,5.66758873 3.36009403,4.80054179 4.08014776,4.08027134 C4.80042538,3.36009045 5.66766005,3 6.68176221,3 L6.68176221,3 Z M17.0556029,5.00015478 L6.94448228,5.00015478 C6.4097305,5.00015478 5.95197991,5.1905063 5.57114538,5.57129448 C5.19039598,5.95216778 5,6.40991382 5,6.94461771 L5,6.94461771 L5,17.0556802 C5,17.5902564 5.19039598,18.0480876 5.57114538,18.4290035 C5.95197991,18.8097491 6.4097305,18.9998452 6.94448228,18.9998452 L6.94448228,18.9998452 L17.0555603,18.9998452 C17.5904823,18.9998452 18.0481904,18.8097491 18.4289398,18.4290035 C18.8096891,18.048045 19,17.5902564 19,17.0556802 L19,17.0556802 L19,6.94461771 C19,6.40987125 18.8097317,5.95212522 18.4289823,5.57129448 C18.0481904,5.19054887 17.5904823,5.00015478 17.0556029,5.00015478 L17.0556029,5.00015478 Z M14.3636015,8 C14.8143136,8 15.1997711,8.1600402 15.5198547,8.4801206 C15.8398786,8.8002408 16,9.18567459 16,9.63638218 L16,9.63638218 L16,14.3636178 C16,14.8143254 15.8399781,15.1997194 15.5198746,15.5198595 C15.1996517,15.8399598 14.8143136,16 14.3636015,16 L14.3636015,16 L9.63633876,16 C9.18562669,16 8.80018906,15.8399598 8.48006567,15.5198595 C8.16004179,15.1997194 8,14.8143055 8,14.3636178 L8,14.3636178 L8,9.63638218 C8,9.18559499 8.16004179,8.8002408 8.48006567,8.4801206 C8.80018906,8.1600402 9.18562669,8 9.63633876,8 L9.63633876,8 Z M13.6611267,9.7 L10.3389013,9.7 C10.1631972,9.7 10.0127934,9.76254545 9.88766205,9.88766434 C9.76255868,10.0128112 9.7,10.1632168 9.7,10.3389091 L9.7,10.3389091 L9.7,13.6611888 C9.7,13.8368392 9.76255868,13.9872727 9.88766205,14.1124336 C10.0127934,14.2375385 10.1631972,14.3 10.3389013,14.3 L10.3389013,14.3 L13.6611127,14.3 C13.8368728,14.3 13.9872625,14.2375385 14.1123659,14.1124336 C14.2374693,13.9872587 14.3,13.8368392 14.3,13.6611888 L14.3,13.6611888 L14.3,10.3389091 C14.3,10.1632028 14.2374833,10.0127972 14.1123799,9.88766434 C13.9872625,9.76255944 13.8368728,9.7 13.6611267,9.7 L13.6611267,9.7 Z" id="Combined-Shape" fill="#404040" fill-rule="nonzero"></path>
    </g>
</svg>

<svg viewBox="0 0 24 24" xmlns="http://www.w3.org/2000/svg" fill="currentColor" focusable="false">
  <path d="M17.318 3c1.014 0 1.881.36 2.602 1.08.72.72 1.08 1.588 1.08 2.602v10.636c0 1.014-.36 1.881-1.08 2.602A3.548 3.548 0 0117.318 21H6.682a3.548 3.548 0 01-2.602-1.08A3.548 3.548 0 013 17.318V6.682C3 5.668 3.36 4.8 4.08 4.08A3.548 3.548 0 016.682 3zm-.262 2H6.944c-.534 0-.992.19-1.373.571C5.191 5.952 5 6.41 5 6.945v10.11c0 .535.19.993.571 1.374.381.38.839.57 1.373.57h10.112c.534 0 .992-.19 1.373-.57.38-.381.571-.839.571-1.373V6.945c0-.535-.19-.993-.571-1.374a1.873 1.873 0 00-1.373-.57zm-2.692 3c.45 0 .836.16 1.156.48.32.32.48.706.48 1.156v4.728c0 .45-.16.836-.48 1.156-.32.32-.706.48-1.156.48H9.636c-.45 0-.836-.16-1.156-.48-.32-.32-.48-.706-.48-1.156V9.636c0-.45.16-.836.48-1.156.32-.32.706-.48 1.156-.48zm-.703 1.7H10.34a.615.615 0 00-.451.188.615.615 0 00-.188.45v3.323c0 .176.063.326.188.451a.615.615 0 00.45.188h3.323a.615.615 0 00.451-.188.615.615 0 00.188-.45v-3.323a.615.615 0 00-.188-.451.615.615 0 00-.45-.188z" fill="none"/>
</svg>
